packages/tools/pie-icons/src/assets/cash-filled.svg

<svg width="16" height="16" viewBox="0 0 16 16" fill="none" xmlns="http://www.w3.org/2000/svg">
<path d="M8.00505 5.21662C6.44562 5.21662 4.91233 5.62608 3.57941 6.41014L3.58813 6.41886C2.85633 6.84574 2.48172 7.69079 2.65595 8.51842L3.02185 10.2434L1.6628 7.4033C1.54083 7.15066 1.60182 6.84574 1.80219 6.65408C2.94345 5.55638 4.44189 4.83329 6.02745 4.63292C7.32552 4.46739 8.56261 3.87499 9.5035 2.96895C9.6516 2.82085 9.8694 2.75986 10.0698 2.79471C10.2701 2.82956 10.4531 2.96024 10.5402 3.1519L11.3853 4.9117C10.7841 5.16434 10.1395 5.29502 9.48607 5.29502C9.31183 5.29502 9.1376 5.28631 8.96336 5.26889C8.64973 5.23404 8.32739 5.21662 8.00505 5.21662Z" fill="#242E30"/>
<path fill-rule="evenodd" clip-rule="evenodd" d="M13.5545 6.19233L14.4606 10.4785V10.4698C14.5128 10.7399 14.3909 11.0274 14.1469 11.1668H14.1295C13.8159 11.3497 13.4935 11.5065 13.1538 11.6372C13.0841 11.6663 13.0144 11.6875 12.9447 11.7088C12.9098 11.7195 12.875 11.7301 12.8401 11.7418C12.5962 11.8289 12.3436 11.9073 12.0909 11.9683C12.0296 11.9824 11.9657 11.994 11.9006 12.0058C11.8455 12.0158 11.7896 12.026 11.7337 12.038C11.4811 12.0815 11.2284 12.1164 10.9758 12.1338C10.9339 12.1368 10.893 12.1408 10.8525 12.1448C10.775 12.1524 10.6987 12.1599 10.6186 12.1599C10.2701 12.1774 9.92166 12.1686 9.57318 12.1338H9.55576C9.32925 12.1077 9.11145 12.0989 8.89366 12.0989C8.86853 12.0989 8.84139 12.101 8.8132 12.103C8.78275 12.1053 8.75109 12.1077 8.71942 12.1077L8.37966 12.1338C8.18799 12.1512 7.99633 12.1774 7.80467 12.2122C7.74804 12.2253 7.69359 12.2362 7.63913 12.247C7.58469 12.2579 7.53024 12.2688 7.47362 12.2819C7.27325 12.3255 7.07287 12.3864 6.88121 12.4561C6.8333 12.4736 6.78757 12.4888 6.74183 12.504C6.69609 12.5193 6.65035 12.5345 6.60243 12.552C6.33236 12.6565 6.06229 12.7872 5.80094 12.9353H5.79223C5.68768 12.9963 5.57443 13.0224 5.46117 13.0224C5.37406 13.0224 5.28694 13.005 5.19982 12.9701C5.10399 12.9266 5.01687 12.8656 4.95588 12.7872C4.8949 12.7088 4.84263 12.6129 4.82521 12.5084L3.91917 8.2222C3.8669 7.95213 3.98887 7.66463 4.2328 7.52524C5.37406 6.86314 6.68084 6.51467 8.00504 6.51467C8.28382 6.51467 8.55389 6.53209 8.82396 6.55822C9.04176 6.58436 9.26827 6.59307 9.48607 6.59307C10.5663 6.59307 11.6466 6.30558 12.5788 5.76544H12.5962C12.692 5.71317 12.7966 5.68704 12.9011 5.68704C12.9882 5.67832 13.0754 5.69575 13.1538 5.7306H13.1799C13.3716 5.81771 13.511 5.98324 13.5545 6.19233ZM8.39708 9.79905C8.58874 10.1475 8.98078 10.3479 9.38152 10.2607L9.37281 10.252C9.83454 10.1562 10.122 9.73806 10.0872 9.28505C10.0872 9.27019 10.0882 9.25634 10.0892 9.24282C10.0911 9.2167 10.0929 9.19178 10.0872 9.16308C9.98264 8.6665 9.49478 8.35287 8.9982 8.45742C8.50162 8.56196 8.18799 9.04982 8.29254 9.5464C8.30996 9.64223 8.35352 9.72064 8.39708 9.79905Z" fill="#242E30"/>
</svg>

<svg width="16" height="16" viewBox="0 0 16 16" fill="none" xmlns="http://www.w3.org/2000/svg">
  <path fill="#242E30" d="M8.005 5.217c-1.56 0-3.093.409-4.426 1.193l.01.009a1.961 1.961 0 0 0-.933 2.1l.366 1.724-1.36-2.84a.652.652 0 0 1 .14-.749 7.492 7.492 0 0 1 4.225-2.021 6.176 6.176 0 0 0 3.477-1.664.65.65 0 0 1 1.036.183l.845 1.76a4.899 4.899 0 0 1-2.422.357 8.71 8.71 0 0 0-.958-.052Z"/>
  <path fill="#242E30" fill-rule="evenodd" d="m13.555 6.192.906 4.287v-.01a.662.662 0 0 1-.314.698h-.018c-.313.183-.636.34-.975.47-.07.03-.14.05-.21.072l-.104.033a7.423 7.423 0 0 1-.75.226 4.192 4.192 0 0 1-.19.038 7.517 7.517 0 0 1-.925.128 4.559 4.559 0 0 0-.123.01c-.077.008-.153.016-.233.016a6.982 6.982 0 0 1-1.046-.026h-.017a5.727 5.727 0 0 0-.662-.035c-.025 0-.053.002-.08.004-.031.002-.063.005-.095.005l-.34.026a6.514 6.514 0 0 0-.574.078 5.286 5.286 0 0 1-.166.035 4.627 4.627 0 0 0-.758.21 4.925 4.925 0 0 1-.14.047c-.045.015-.09.03-.139.048-.27.104-.54.235-.801.383h-.009a.65.65 0 0 1-.33.087.644.644 0 0 1-.505-.235.635.635 0 0 1-.132-.279L3.92 8.222a.662.662 0 0 1 .314-.697 7.53 7.53 0 0 1 4.591-.967 6.206 6.206 0 0 0 3.755-.793h.017a.636.636 0 0 1 .305-.078.502.502 0 0 1 .253.044h.026a.65.65 0 0 1 .375.461ZM8.396 9.8a.906.906 0 0 0 .985.462l-.01-.009a.902.902 0 0 0 .715-.967.56.56 0 0 1 .002-.042.283.283 0 0 0-.002-.08.917.917 0 1 0-1.794.383.814.814 0 0 0 .104.253Z" clip-rule="evenodd"/>
</svg>
